lib/brands/icons/facebook-workplace.svg

<svg xmlns="http://www.w3.org/2000/svg" fill="none" aria-hidden="true" viewBox="0 0 48 48"><g id="facebook-workplace-Icon"><path id="Vector" fill="#363E4C" d="M37.6926 31.416C37.2066 31.974 36.3606 32.856 34.9926 32.856C33.0846 32.856 32.4546 31.47 31.8786 30.012L28.9986 22.938L26.1186 30.012C25.6506 31.2 25.1106 32.856 23.0046 32.856C20.8986 32.856 20.3766 31.2 19.8726 30.012L15.0486 18.096H19.1166L23.0046 27.906L25.9026 20.76C26.3526 19.626 26.8926 17.916 28.9986 17.916C31.0506 17.916 31.6266 19.626 32.0946 20.76L35.2446 28.5C36.8466 26.052 37.5306 23.1 37.1346 20.202C36.7386 17.304 35.3166 14.64 33.1026 12.714C30.9066 10.788 28.0626 9.708 25.1466 9.708C22.1046 9.69 19.1526 10.644 16.6506 12.408C14.2386 14.19 12.4026 16.692 11.4666 19.572C10.5306 22.452 10.5306 25.566 11.4666 28.446C12.4026 31.326 14.2386 33.828 16.7046 35.592C19.1706 37.374 22.1226 38.31 25.1466 38.292C26.4606 38.292 27.7566 38.112 29.0166 37.752V41.55C27.7386 41.838 26.4426 42 25.1466 42C21.3486 42 17.6226 40.812 14.5266 38.58C11.4306 36.348 9.12657 33.198 7.95657 29.58C6.75057 25.962 6.75057 22.056 7.93857 18.42C9.12657 14.802 11.4306 11.652 14.5266 9.42C17.6046 7.188 21.3306 6 25.1466 6C33.8586 6 40.9506 13.092 40.9506 21.822C40.9506 25.278 39.7986 28.662 37.6926 31.416Z"/></g></svg>

<svg xmlns="http://www.w3.org/2000/svg" fill="none" aria-hidden="true" viewBox="0 0 48 48"><path fill="#363E4C" d="M37.693 31.416c-.486.558-1.332 1.44-2.7 1.44-1.908 0-2.538-1.386-3.114-2.844l-2.88-7.074-2.88 7.074c-.468 1.188-1.008 2.844-3.114 2.844s-2.628-1.656-3.132-2.844l-4.824-11.916h4.068l3.888 9.81 2.898-7.146c.45-1.134.99-2.844 3.096-2.844 2.052 0 2.628 1.71 3.096 2.844l3.15 7.74a12.172 12.172 0 0 0 1.89-8.298 12.081 12.081 0 0 0-4.032-7.488 12.112 12.112 0 0 0-7.956-3.006c-3.042-.018-5.994.936-8.496 2.7a14.515 14.515 0 0 0-5.184 7.164 14.373 14.373 0 0 0 0 8.874 14.173 14.173 0 0 0 5.238 7.146 14.25 14.25 0 0 0 8.442 2.7c1.314 0 2.61-.18 3.87-.54v3.798c-1.278.288-2.574.45-3.87.45a18.173 18.173 0 0 1-10.62-3.42 17.888 17.888 0 0 1-6.57-9 17.79 17.79 0 0 1-.018-11.16 18.026 18.026 0 0 1 6.588-9C17.605 7.188 21.33 6 25.147 6c8.712 0 15.804 7.092 15.804 15.822 0 3.456-1.152 6.84-3.258 9.594Z"/></svg>
